src/assets/selectIcons/strumento_5.svg

<svg xmlns="http://www.w3.org/2000/svg" viewBox="0 0 512 512"><path d="M0 0h512v512H0z"/><path fill="#fff" d="M186.436 86.738c-9.044 0-19.112 5.87-26.735 21.114l-6.807 13.62c2.48-.203 4.968-.31 7.455-.31 18.02 0 36.005 5.363 51.87 15.977v-30.984c-7.5-13.917-17.102-19.418-25.782-19.418zm139.128 0c-8.68 0-18.28 5.5-25.78 19.418v30.994c18.064-12.06 38.895-17.28 59.345-15.638l-6.83-13.66c-7.624-15.245-17.692-21.114-26.736-21.114zm-165.216 51.926c-19.05 0-38.08 7.693-53.74 23l-37.38 65.418c14.492-6.743 30.633-10.518 47.64-10.518 39.96 0 75.16 20.792 95.35 52.124V159.846c-15.293-14.115-33.58-21.182-51.87-21.182zm192.433.033c-18.662-.306-37.39 6.74-52.997 21.145v108.845c20.19-31.33 55.39-52.123 95.348-52.123 17.01 0 33.15 3.775 47.643 10.518l-37.38-65.418c-15.35-15.003-33.95-22.66-52.612-22.967zM256 151.957c-5.113 0-11.882 2.775-25.783 9.627v133.014c7.246-5.314 16.164-8.467 25.783-8.467 9.62 0 18.537 3.154 25.783 8.468V161.584c-13.9-6.852-20.67-9.627-25.783-9.627zm-139.13 82.607c-52.767 0-95.35 42.582-95.35 95.348s42.583 95.35 95.35 95.35c52.765 0 95.347-42.584 95.347-95.35 0-52.766-42.582-95.348-95.348-95.348zm278.26 0c-52.765 0-95.347 42.582-95.347 95.348s42.582 95.35 95.348 95.35c52.767 0 95.35-42.584 95.35-95.35 0-52.766-42.583-95.348-95.35-95.348zm-279.827 19.004c1.223-.018 2.448-.008 3.674.03 7.344.225 14.694 1.462 21.77 3.816 36.842 11.343 59.745 51.664 50.622 89.11-7.652 37.743-45.455 64.51-83.595 59.17-38.748-3.865-69.376-39.578-67.16-78.483.167-11.41 3.133-22.336 8.2-32.124A26.087 26.087 0 0 0 73.39 312.52a26.087 26.087 0 0 0 26.09-26.084 26.087 26.087 0 0 0-17.447-24.584c9.058-4.694 19.097-7.594 29.606-8.147 1.218-.072 2.44-.118 3.663-.137zm278.26 0c1.223-.018 2.448-.008 3.673.03 7.344.225 14.696 1.462 21.774 3.816 36.84 11.343 59.742 51.664 50.62 89.11-7.652 37.742-45.453 64.51-83.59 59.173-38.75-3.865-69.38-39.582-67.163-78.488.167-11.41 3.133-22.334 8.2-32.122a26.087 26.087 0 0 0 24.575 17.433 26.087 26.087 0 0 0 26.086-26.084 26.087 26.087 0 0 0-17.443-24.584c9.057-4.694 19.095-7.594 29.603-8.147 1.22-.072 2.44-.118 3.664-.137zM256 304.13c-14.346 0-25.783 11.436-25.783 25.782s11.437 25.783 25.783 25.783c14.346 0 25.783-11.437 25.783-25.783 0-14.346-11.437-25.78-25.783-25.78z"/></svg>

<?xml version="1.0" encoding="UTF-8" standalone="no"?>
<!DOCTYPE svg PUBLIC "-//W3C//DTD SVG 1.1//EN" "http://www.w3.org/Graphics/SVG/1.1/DTD/svg11.dtd">
<svg width="100%" height="100%" viewBox="0 0 512 512" version="1.1" xmlns="http://www.w3.org/2000/svg" xmlns:xlink="http://www.w3.org/1999/xlink" xml:space="preserve" xmlns:serif="http://www.serif.com/" style="fill-rule:evenodd;clip-rule:evenodd;stroke-linejoin:round;stroke-miterlimit:2;">
    <rect x="0" y="0" width="512" height="512" style="fill-rule:nonzero;"/>
    <path d="M186.436,86.738C177.392,86.738 167.324,92.608 159.701,107.852L152.894,121.472C155.374,121.269 157.862,121.162 160.349,121.162C178.369,121.162 196.354,126.525 212.219,137.139L212.219,106.155C204.719,92.238 195.117,86.737 186.437,86.737L186.436,86.738ZM325.564,86.738C316.884,86.738 307.284,92.238 299.784,106.156L299.784,137.15C317.848,125.09 338.679,119.87 359.129,121.512L352.299,107.852C344.675,92.607 334.607,86.738 325.563,86.738L325.564,86.738ZM160.348,138.664C141.298,138.664 122.268,146.357 106.608,161.664L69.228,227.082C83.72,220.339 99.861,216.564 116.868,216.564C156.828,216.564 192.028,237.356 212.218,268.688L212.218,159.846C196.925,145.731 178.638,138.664 160.348,138.664ZM352.781,138.697C334.119,138.391 315.391,145.437 299.784,159.842L299.784,268.687C319.974,237.357 355.174,216.564 395.132,216.564C412.142,216.564 428.282,220.339 442.775,227.082L405.395,161.664C390.045,146.661 371.445,139.004 352.783,138.697L352.781,138.697ZM256,151.957C250.887,151.957 244.118,154.732 230.217,161.584L230.217,294.598C237.463,289.284 246.381,286.131 256,286.131C265.62,286.131 274.537,289.285 281.783,294.599L281.783,161.584C267.883,154.732 261.113,151.957 256,151.957ZM256,304.13C241.654,304.13 230.217,315.566 230.217,329.912C230.217,344.258 241.654,355.695 256,355.695C270.346,355.695 281.783,344.258 281.783,329.912C281.783,315.566 270.346,304.132 256,304.132L256,304.13Z" style="fill:rgb(164,164,164);fill-rule:nonzero;"/>
    <path d="M116.869,234.564C169.635,234.564 212.217,277.146 212.217,329.912C212.217,382.678 169.635,425.262 116.87,425.262C64.103,425.262 21.52,382.678 21.52,329.912C21.52,277.146 64.102,234.564 116.869,234.564ZM115.303,253.568C114.08,253.587 112.857,253.633 111.639,253.705C101.13,254.258 91.091,257.158 82.033,261.852C92.449,265.508 99.467,275.397 99.48,286.436C99.478,300.746 87.703,312.52 73.393,312.52L73.39,312.52C62.358,312.506 52.474,305.495 48.814,295.087C43.747,304.875 40.781,315.801 40.614,327.211C38.398,366.116 69.026,401.829 107.774,405.694C145.914,411.034 183.717,384.267 191.369,346.524C200.492,309.078 177.589,268.757 140.747,257.414C133.671,255.06 126.321,253.823 118.977,253.598C117.751,253.56 116.526,253.55 115.303,253.568ZM395.131,234.564C447.898,234.564 490.481,277.146 490.481,329.912C490.481,382.678 447.898,425.262 395.131,425.262C342.365,425.262 299.783,382.678 299.783,329.912C299.783,277.146 342.366,234.564 395.131,234.564ZM393.563,253.568C392.339,253.587 391.118,253.633 389.898,253.705C379.39,254.258 369.352,257.158 360.295,261.852C370.709,265.509 377.726,275.398 377.738,286.436C377.736,300.745 365.961,312.519 351.652,312.52C340.62,312.505 330.737,305.494 327.077,295.087C322.01,304.875 319.044,315.799 318.877,327.209C316.66,366.115 347.29,401.832 386.04,405.697C424.177,411.034 461.978,384.266 469.63,346.524C478.752,309.078 455.85,268.757 419.01,257.414C411.932,255.06 404.58,253.823 397.236,253.598C396.011,253.56 394.786,253.55 393.563,253.568Z" style="fill:rgb(124,202,250);"/>
</svg>
